!!!ONB: MCCC : ILB0174_02 : Extracted Monophonic Melody
!!!COM: Beethoven, Ludwig van
!!!OPR: Piano Sonata No.13
!!!OMV: 2
!!!SCT: Op.27 No.1
!!!ODT: 1800///
**kern
*thru
*staff1
*Ipiano
*>I
*clefG2
*k[b-e-a-]
*c:
*M3/4
*MM320
=2
*>A
4c
4e-
4g
=3
4gg
4ee-
4cc
=4
4gg
4dd
4b
=5
4g
4d
4B
=6
4g
4d
4B-
=7
4gg
4dd
4b-
=8
4ff
4cc
4a
=9
4f
4c
4A
=10
4f
4c
4A-
=11
4ff
4cc
4a-
=12
4ee-
4cc
4g
=13
4ee-
4a
4g
=14
4dd
4b-
4g
=15
4dd
4a
4f#
=16
*>A1
4g
4r
4r
=17
2.r
=18
*>A
4c
4e-
4g
=19
4gg
4ee-
4cc
=20
4gg
4dd
4b
=21
4g
4d
4B
=22
4g
4d
4B-
=23
4gg
4dd
4b-
=24
4ff
4cc
4a
=25
4f
4c
4A
=26
4f
4c
4A-
=27
4ff
4cc
4a-
=28
4ee-
4cc
4g
=29
4ee-
4a
4g
=30
4dd
4b-
4g
=31
4dd
4a
4f#
=32
*>A2
4g
4r
4r
=33
2.r
=34
*>B
2.r
=35
4b-
4g
4c
=36
4a-
4f
4c
=37
2.r
=38
2.r
=39
4ff
4dd
4g
=40
4ee-
4cc
4g
=41
2.r
=42
4c
4e-
4g
=43
4aa-
4ee-
4cc
=44
4aa-
4dd
4b
=45
4a-
4d
4B
=46
4g
4d
4B-
=47
4gg
4dd
4b-
=48
4gg
4cc
4a
=49
4g
4c
4A
=50
4f
4c
4A-
=51
4ff
4cc
4a-
=52
4ee-
4cc
4g
=53
4cc
4a
4e-
=54
4cc
4g
4e-
=55
4b
4g
4d
=56
*>B1
4cc
4r
4r
=57
2.r
=58
*>B
2.r
=59
4b-
4g
4c
=60
4a-
4f
4c
=61
2.r
=62
2.r
=63
4ff
4dd
4g
=64
4ee-
4cc
4g
=65
2.r
=66
4c
4e-
4g
=67
4aa-
4ee-
4cc
=68
4aa-
4dd
4b
=69
4a-
4d
4B
=70
4g
4d
4B-
=71
4gg
4dd
4b-
=72
4gg
4cc
4a
=73
4g
4c
4A
=74
4f
4c
4A-
=75
4ff
4cc
4a-
=76
4ee-
4cc
4g
=77
4cc
4a
4e-
=78
4cc
4g
4e-
=79
4b
4g
4d
=80
*>B2
4cc
4g
4e-
=81
4c
4r
4r
=82
*>C
2.r
=83
2.r
=84
2.r
=85
4r
4c
4r
=86
4r
4e-
4r
=87
4r
4a-
4r
=88
4r
4cc
4r
=89
4r
4ee-
4r
=90
2.gg-
=91
2.gg-
=92
4gg
4ee-
4b-[
=93
4b-]
4a-
4f
=94
*>C1
4e-
2r
=95
2.r
=96
*>C
2.r
=97
2.r
=98
2.r
=99
4r
4c
4r
=100
4r
4e-
4r
=101
4r
4a-
4r
=102
4r
4cc
4r
=103
4r
4ee-
4r
=104
2.gg-
=105
2.gg-
=106
4gg
4ee-
4b-[
=107
4b-]
4a-
4f
=108
*>C2
4e-
4r
4r
=109
2r
*>D
4r
=110
2.r
=111
2.r
=112
4r
4ff
4ee-
=113
4r
4dd-
4cc
=114
4r
4b-
4a-
=115
4r
4g
4a-
=116
4r
4b-
4cc
=117
4r
4dd-
4ee-
=118
4r
4ff
4ee-
=119
4r
4dd-
4cc
=120
4r
4b-
4a-
=121
4r
4g
4f
=122
4r
4e-
4d-
=123
4r
4c
4B
=124
4r
4B-
4c
=125
4r
4d-
4G
=126
*>D1
2.B-
=127
4A-
4r
*>D
4r
=128
2.r
=129
2.r
=130
4r
4ff
4ee-
=131
4r
4dd-
4cc
=132
4r
4b-
4a-
=133
4r
4g
4a-
=134
4r
4b-
4cc
=135
4r
4dd-
4ee-
=136
4r
4ff
4ee-
=137
4r
4dd-
4cc
=138
4r
4b-
4a-
=139
4r
4g
4f
=140
4r
4e-
4d-
=141
4r
4c
4B
=142
4r
4B-
4c
=143
4r
4d-
4G
=144
*>D2
4A-
2r
=145
*>E
2.r
=146
4c
4e-
4g
=147
4gg
4ee-
4cc
=148
4gg
4dd
4b
=149
4g
4d
4B
=150
4g
4d
4B-
=151
4gg
4dd
4b-
=152
4ff
4cc
4a
=153
4f
4c
4A
=154
4f
4c
4A-
=155
4ff
4cc
4a-
=156
4ee-
4cc
4g
=157
4ee-
4a
4g
=158
4dd
4b-
4g
=159
4dd
4a
4f#
=160
4g
4r
4r
=161
2.r
=162
8r
4c
4e-
8g
=163
8r
4gg
4ee-
8cc
=164
8r
4gg
4dd
8b
=165
8r
4g
4d
8B
=166
8r
4g
4d
8B-
=167
8r
4gg
4dd
8b-
=168
8r
4ff
4cc
8a
=169
8r
4f
4c
8A-
=170
8r
4f
4c
8A-
=171
8r
4ff
4cc
8a-
=172
8r
4ee-
4cc
8g
=173
8r
4ee-
4a
8g
=174
8r
4dd
4b-
8g
=175
8r
4dd
4a
8f#
=176
4g
4r
4r
=177
2.r
=178
2.r
=179
8r
4b-
4g
8c
=180
8r
4a-
4f
8c
=181
2.r
=182
2.r
=183
8r
4ff
4dd
8g
=184
8r
4ee-
4cc
8g
=185
2.r
=186
8r
4c
4e-
8g
=187
8r
4aa-
4ee-
8cc
=188
8r
4aa-
4dd
8b
=189
8r
4a-
4d
8B
=190
8r
4g
4d
8B-
=191
8r
4gg
4dd
8b-
=192
8r
4gg
4cc
8a
=193
8r
4g
4c
8A
=194
8r
4f
4c
8A-
=195
8r
4ff
4cc
8a-
=196
8r
4ee-
4cc
8g
=197
8r
4cc
4a
8e-
=198
8r
4cc
4g
8e-
=199
8r
4b
4g
8d
=200
8r
4cc
4g
8e
=201
8r
4cc
4a-
8f
=202
8r
4cc
4b-
8g
=203
8r
4cc
4a-
8f
=204
8rff
4ccc
4ee
8gg
=205
8rff
4ccc
4ff
8aa-
=206
8rff
4ccc
4gg
8bb-
=207
8rff
4ccc
4ff
8aa-
=208
8r
4ccc
4gg
8ee[
=209
8ee]
4cc
4g
[8e
=210
8e]
4c
4.r
=211
2.r
=212
2.r
==
*-
